qtOgitor/res/icons/grid.svg

<?xml version="1.0" encoding="UTF-8" standalone="no"?>
<!-- Created with Inkscape (http://www.inkscape.org/) -->
<svg
   xmlns:dc="http://purl.org/dc/elements/1.1/"
   xmlns:cc="http://creativecommons.org/ns#"
   xmlns:rdf="http://www.w3.org/1999/02/22-rdf-syntax-ns#"
   xmlns:svg="http://www.w3.org/2000/svg"
   xmlns="http://www.w3.org/2000/svg"
   xmlns:sodipodi="http://sodipodi.sourceforge.net/DTD/sodipodi-0.dtd"
   xmlns:inkscape="http://www.inkscape.org/namespaces/inkscape"
   version="1.0"
   width="32pt"
   height="32pt"
   viewBox="0 0 32 32"
   id="svg2"
   sodipodi:version="0.32"
   inkscape:version="0.46"
   sodipodi:docname="grid.svg"
   inkscape:output_extension="org.inkscape.output.svg.inkscape">
  <metadata
     id="metadata66">
    <rdf:RDF>
      <cc:Work
         rdf:about="">
        <dc:format>image/svg+xml</dc:format>
        <dc:type
           rdf:resource="http://purl.org/dc/dcmitype/StillImage" />
      </cc:Work>
    </rdf:RDF>
  </metadata>
  <sodipodi:namedview
     inkscape:window-height="764"
     inkscape:window-width="1264"
     inkscape:pageshadow="2"
     inkscape:pageopacity="0"
     guidetolerance="10.0"
     gridtolerance="10.0"
     objecttolerance="10.0"
     borderopacity="1.0"
     bordercolor="#666666"
     pagecolor="#ffffff"
     id="base"
     showgrid="false"
     inkscape:zoom="11.55"
     inkscape:cx="20"
     inkscape:cy="20"
     inkscape:window-x="0"
     inkscape:window-y="0"
     inkscape:current-layer="svg2" />
  <defs
     id="defs111">
    <inkscape:perspective
       sodipodi:type="inkscape:persp3d"
       inkscape:vp_x="0 : 20 : 1"
       inkscape:vp_y="0 : 1000 : 0"
       inkscape:vp_z="40 : 20 : 1"
       inkscape:persp3d-origin="20 : 13.333333 : 1"
       id="perspective68" />
  </defs>
  <rect
     style="fill:none;fill-opacity:0.99215698;stroke:#6f84ee;stroke-width:1.59673464;stroke-linecap:round;stroke-linejoin:round;stroke-miterlimit:4;stroke-dasharray:none;stroke-opacity:0.98999999"
     id="rect2441"
     width="28.003265"
     height="27.847422"
     x="1.8061595"
     y="2.0312674" />
  <path
     style="fill:none;fill-rule:evenodd;stroke:#6f84ee;stroke-width:1.60000002;stroke-linecap:butt;stroke-linejoin:miter;stroke-miterlimit:4;stroke-dasharray:none;stroke-opacity:0.99215686"
     d="M 7.4077922,2.4242425 C 7.4077922,30.060606 7.4077922,30.12987 7.4077922,30.12987"
     id="path3728"
     sodipodi:nodetypes="cc" />
  <path
     style="fill:none;fill-rule:evenodd;stroke:#6f84ee;stroke-width:1.60000002;stroke-linecap:butt;stroke-linejoin:miter;stroke-miterlimit:4;stroke-dasharray:none;stroke-opacity:0.99215686"
     d="M 13.007792,2.4935066 C 13.007792,30.12987 13.007792,30.199134 13.007792,30.199134"
     id="path3730"
     sodipodi:nodetypes="cc" />
  <path
     style="fill:none;fill-rule:evenodd;stroke:#6f84ee;stroke-width:1.60000002;stroke-linecap:butt;stroke-linejoin:miter;stroke-miterlimit:4;stroke-dasharray:none;stroke-opacity:0.99215686"
     d="M 18.607792,2.3549784 C 18.607792,29.991341 18.607792,30.060605 18.607792,30.060605"
     id="path3732"
     sodipodi:nodetypes="cc" />
  <path
     style="fill:none;fill-rule:evenodd;stroke:#6f84ee;stroke-width:1.60000002;stroke-linecap:butt;stroke-linejoin:miter;stroke-miterlimit:4;stroke-dasharray:none;stroke-opacity:0.99215686"
     d="M 24.207792,2.3549784 C 24.207792,29.991342 24.207792,30.060606 24.207792,30.060606"
     id="path3734"
     sodipodi:nodetypes="cc" />
  <g
     id="g3742"
     transform="matrix(0,1,-1,0,32.207792,1.0770563)">
    <path
       sodipodi:nodetypes="cc"
       id="path3744"
       d="M 7.2,2.1471862 C 7.2,29.78355 7.2,29.852814 7.2,29.852814"
       style="fill:none;fill-rule:evenodd;stroke:#6f84ee;stroke-width:1.60000002;stroke-linecap:butt;stroke-linejoin:miter;stroke-miterlimit:4;stroke-dasharray:none;stroke-opacity:0.99215686" />
    <path
       sodipodi:nodetypes="cc"
       id="path3746"
       d="M 12.8,2.6320347 C 12.8,30.268398 12.8,30.337662 12.8,30.337662"
       style="fill:none;fill-rule:evenodd;stroke:#6f84ee;stroke-width:1.60000002;stroke-linecap:butt;stroke-linejoin:miter;stroke-miterlimit:4;stroke-dasharray:none;stroke-opacity:0.99215686" />
    <path
       sodipodi:nodetypes="cc"
       id="path3748"
       d="M 18.4,2.0779221 C 18.4,29.714285 18.4,29.783549 18.4,29.783549"
       style="fill:none;fill-rule:evenodd;stroke:#6f84ee;stroke-width:1.60000002;stroke-linecap:butt;stroke-linejoin:miter;stroke-miterlimit:4;stroke-dasharray:none;stroke-opacity:0.99215686" />
    <path
       sodipodi:nodetypes="cc"
       id="path3750"
       d="M 24,2.0779221 C 24,29.714286 24,29.78355 24,29.78355"
       style="fill:none;fill-rule:evenodd;stroke:#6f84ee;stroke-width:1.60000002;stroke-linecap:butt;stroke-linejoin:miter;stroke-miterlimit:4;stroke-dasharray:none;stroke-opacity:0.99215686" />
  </g>
</svg>

<svg width="40" xmlns="http://www.w3.org/2000/svg" height="40" viewBox="0 0 32 32">
<g fill="none" stroke="#6f84ee">
<g>
<path stroke-opacity=".99" stroke-linejoin="round" fill-opacity=".992" stroke-linecap="round" stroke-width="1.597" d="m1.8062,2.0313h28.0032v27.8474h-28.0032z"/>
</g>
<g stroke-opacity=".992" fill-rule="evenodd" stroke-width="1.6">
<g>
<path d="m7.4078,2.4242c0,27.6364 0,27.7056 0,27.7056"/>
<path d="m13.0078,2.4935c0,27.6364 0,27.7056 0,27.7056"/>
<path d="m18.6078,2.355c0,27.6364 0,27.7056 0,27.7056"/>
<path d="m24.2078,2.355c0,27.6364 0,27.7056 0,27.7056"/>
</g>
<g transform="matrix(0 1 -1 0 32.20779 1.07706)">
<path d="m7.2,2.1472c0,27.6364 0,27.7056 0,27.7056"/>
<path d="m12.8,2.632c0,27.6364 0,27.7056 0,27.7056"/>
<path d="m18.4,2.0779c0,27.6364 0,27.7056 0,27.7056"/>
<path d="m24,2.0779c0,27.6364 0,27.7056 0,27.7056"/>
</g>
</g>
</g>
</svg>
